X: 25801
T: Mason's Apron, The
R: reel
M: 4/4
K: Amajor
g2|aAA2 cBAF|EFAB cABc|dBBA B2BA|GABc defg|
aAA2 cBAF|EFAB cABc|d2 de f2af|ecBc A2 z2|
aAA2 cBAF|EFAB cABc|(3dcB (3cBA (3BAG (3AGF|G2 Bc defg|
aAA2 cBAF|EFAB cABc|d2 de f2af|ecBc A2 z2||
ceee feee|ceee fedc|dfff afff|dfff agfe|
ceee feee|ceee fedc|d2de fefa|eAcB A2 z2|
ceee f3e|ceee fedc|dfff a2 aa|agfe agfe|
ceee feee|ceee fedc|d2de fefa|eAcB a2 aa||
aeee aece|a2 ga fece|bffe f3 a|bf3 fece|
aeee aece|a2 ga fece|d2 de f2af|ecBc A2 z2|
a2 aa aeee|a2 ga faea|b3a bf3|b3a f3g|
aeee aece|a2 ga fece|d2 de f2af|ecBc A3 B||
ceAc eAce|AceA ceAc|dFAd fAdf|AdfA d2 ed|
ceac eAce|AceA ceAc|d2 de f2af|ecBc A3 B|
ceAc eAce|uaecua ecuae|fedc dcBA|GABc d2 ed|
ceAc eAce|uaecua ecuae|fedc df3|ecBc A3 z||
ac'ea c'eac'|bd'eb d'ebd'|ac'ea c'eab|gbeg begb|
ac'ea c'eac'|bd'eb d'ebd'|ac'ea gbea|gefg a2 z2|
a2 c'a eac'a|b2d'b ebd'b|a2 c'a eac'a|gbeg begb|
a2 c'a eac'a|b2d'b ebd'b|ac'ea gbea|gefg a2 AB||
c2 ec Acec|=Gcec Fcec|d2 fd adfd|~d2 fd adfd|
c2 ec Acec|=Gcec Fcec|d3e f2 ed|cAAG A3B|
c2 ec A3c|=G3c F3 B/c/|d2 fd adfd|~d2 fd adfd|
c2 ec Acec|=Gcec Fcec|d3e f2 ed|cAAG A3 g||

